X:38
T:Because he Was A Bonny Lad. RDO.38
M:C|
L:1/8
Q:1/2=75
S:Robert D. Owen MS,Indiana,1826.
R:.Country dance
O:Indiana,USA
A:New Harmony
Z:vmp.Chris Partington
W:a
K:A
e|c>BAa f/g/a ec|d>fe>c B>B Be|c>BAa f/g/a ec|d>fe>c A<AA2:|!
|:z|cBAc defd|cAeA B<B Bd|c>BAc defg|a/(g/f/)g/ aA A<A Ae|!
cAeA fAeA|cAec B<B Bg|afge fdec|d>fec A<AA2:|

